X: 1
T: ECLIPSE -- HIGHLAND FLING
B: Ryan's Mammoth Collection of Fiddle Tunes
R: highland fling
M: C|
L: 1/8
Z: Contributed 20080604 by John Chambers jc:jc.tzo.net
K: G
|: (vG,>.G) uG2 "SEGUE"G,>G G2 | A>BA>G F>DE>F \
| G>FG>D E>G c>"4"e | d>Bc>A (B<G)G2 :|
|: ((3vbag) (ud<G) "SEGUE"(B<g) (d<g) | ((3bag) (d<g) (e<a) a2 \
| ((3bag) (d<g) (B<g) (d<g) | c>ed>c (B<G) G2 :|
